!!!!SEGMENT: pl-wn--sd-xvi-o-265_bazylik-cyprian--kancjonal-zamoyskich-dobrotliwosc-panska-madrosc-ojca-wczechmocnego.krn
!!!cenid: 15xx:821
!!!COM: Bazylik, Cyprian
!!!COM-rismID: pe40000234
!!!CDT: ~1535-~1600
!!!CNT: Polish
!!!GTL: Kancjonał Zamoyskich
!!!OTL: Dobrotliwość Pańska/Mądrość ojca wczechmocnego
!!!PDT: 1558
!!!AGN:
!!!SMS-siglum: PL-Wn
!!!SMS-shelfmark: SD XVI.O.265
!!!SMS-shelfwork: G
!!!SMS-variant:
!!!SMS-altvar:
!!!NIFC-rismSourceID: 990004240
!!!NIFC-rismChildID: 990004240
!!!NIFC-islandoraID: none
!!!URL-pdf-islandora:
!!!URL-scan: https://polona.pl/item/dobrotliwosc-panska-iak-lvb,NTg4NDI3Mw/3 @EN{Scan on Polona} @PL{Skany w portalu Polona}
!!!ONB-nifc: UWAGA: proszę zapisywać tylko teksty występujące bezpośrednio pod nutami
!!!AIN: 1 alto 1 bass 1 soprn 1 tenor
!!!key: g:dor
**kern	**text	**mod-text	**kern	**text	**mod-text	**kern	**text	**mod-text	**kern	**text	**mod-text
*part4	*part4	*part4	*part3	*part3	*part3	*part2	*part2	*part2	*part1	*part1	*part1
*staff4	*staff4	*staff4	*staff3	*staff3	*staff3	*staff2	*staff2	*staff2	*staff1	*staff1	*staff1
*I"BASS.	*	*	*I"TENOR.	*	*	*I"ALT.	*	*	*I"DISCANT.	*	*
*mI"Basso	*	*	*mI"Tenore	*	*	*mI"Alto	*	*	*mI"Soprano	*	*
*I'B	*	*	*I'T	*	*	*I'A	*	*	*I'S	*	*
*Ibass	*	*	*Itenor	*	*	*Ialto	*	*	*Isoprn	*	*
*ICvox	*	*	*ICvox	*	*	*ICvox	*	*	*ICvox	*	*
*clefF4	*	*	*clefC4	*	*	*clefC3	*	*	*clefC1	*	*
*	*	*	*mclefGv2	*	*	*mclefG2	*	*	*mclefG2	*	*
*k[b-]	*	*	*k[b-]	*	*	*k[b-]	*	*	*k[b-]	*	*
*g:dor	*	*	*g:dor	*	*	*g:dor	*	*	*g:dor	*	*
*M2/1	*	*	*M2/1	*	*	*M2/1	*	*	*M2/1	*	*
*met(C|)	*	*	*met(C|)	*	*	*met(C|)	*	*	*met(C|)	*	*
*mmet(c|)	*	*	*mmet(c|)	*	*	*mmet(c|)	*	*	*mmet(c|)	*	*
=1-	=1-	=1-	=1-	=1-	=1-	=1-	=1-	=1-	=1-	=1-	=1-
!!LO:TX:a:t=P:problem:caudy wszystkich nut po sródku
*xywh-#6:2886,402,2064,960	*	*	*xywh-#6:641,375,2127,902	*	*	*xywh-#5:2847,371,2161,925	*	*	*xywh-#5:664,374,2092,1023	*	*
2G\	Mą-	Mą-	2G/	Mą-	Mą-	2d\	Mą-	Mą-	2g/	Mą-	Mą-
2G\	-drość	-drość	2B-\	-drość	-drość	2d\	-drość	-drość	2g/	-drość	-drość
2D/	oy-	Oj-	2A/	oy-	Oj-	2d\	Oy-	Oj-	2f/	oy-	Oj-
2A\	-ca	-ca	1c\	-ca	-ca	2e\	-ca	-ca	1a\	-ca	-ca
=2-	=2-	=2-	=2-	=2-	=2-	=2-	=2-	=2-	=2-	=2-	=2-
2F\	wſzech-	wszech-	.	.	.	2f\	wſzech-	wszech-	.	.	.
2G\	-moc-	-moc-	2B-\	wſzech-	wszech-	2d\	-moc-	-moc-	2g/	wſzech-	wszech-
1D	-n(e-	-ne-	2A/	-moc-	-moc-	1d	-(ne-	-ne-	2f/	-moc-	-moc-
.	.	.	2A/	-n(e-	-ne-	.	.	.	2f/	-n(e-	-ne-
=3-	=3-	=3-	=3-	=3-	=3-	=3-	=3-	=3-	=3-	=3-	=3-
!LO:SIC:v:t=custos G	!	!	!LO:SIC:v:t=custos B-	!	!	!LO:SIC:v:t=custos d	!	!	!LO:SIC:v:t=custos g	!	!
1GG	-go)	-go	1G	-go)	-go	1d	-go)	-go	1b-	-go)	-go
!!LO:LB:g=original
*xywh-#6:2880,1310,2081,724	*	*	*xywh-#6:630,1203,2133,712	*	*	*xywh-#5:2842,1274,2133,655	*	*	*xywh-#5:659,1357,2092,718	*	*
2G\	Kry-	Kry-	2B-\	Kry-	Kry-	2d\	Kry-	Kry-	2g/	Kry-	Kry-
2G\	-ſtus	-stus	2d\	-ſtus	-stus	2g\	-ſtus	-stus	2b-\	-ſtus	-stus
=4-	=4-	=4-	=4-	=4-	=4-	=4-	=4-	=4-	=4-	=4-	=4-
2A\	on	on	2c\	on	on	2e\	on	on	2a\	on	on
2G\	wiecz-	wie-	2d\	wiecz-	wie-	2g\	wie(cz-	wie-	2b-\	wiecz-	wie-
2C/	-(ny)	-czny	2e-X\	-ny	-czny	2g\	-ny)	-czny	2cc\	-ny	-czny
4D\	.	Syn	2d\	S(yn)	Syn	2f\	Syn	Syn	1b-\	S(yn)	Syn
!LO:SIC:s=4E-i	!	!	!	!	!	!	!	!	!	!	!
4E\	.	.	.	.	.	.	.	.	.	.	.
=5-	=5-	=5-	=5-	=5-	=5-	=5-	=5-	=5-	=5-	=5-	=5-
2F\	S(yn)	.	1c	ie-	Je-	1f	ie-	Je-	.	.	.
2F\	ie-	Je-	.	.	.	.	.	.	2a\	ie-	Je-
!LO:SIC:v:t=custos BB-	!	!	!LO:SIC:v:t=custos B-	!	!	!LO:SIC:v:t=custos f	!	!	!LO:SIC:v:t=custos f	!	!
1BB-	-go/	-go	1B-	-go/	-go	1d	-go/	-go	1b-	-go/	-go
!!LO:LB:g=original
=6-	=6-	=6-	=6-	=6-	=6-	=6-	=6-	=6-	=6-	=6-	=6-
*xywh-#6:2880,1992,2092,701	*	*	*xywh-#6:618,1846,2150,701	*	*	*xywh-#5:2842,1907,2110,632	*	*	*xywh-#5:630,2041,2144,793	*	*
1BB-	Przy-	przy-	2.B-\	Przy-	przy-	1f	Przy-	przy-	1f	Przy-	przy-
.	.	.	4c\	.	.	.	.	.	.	.	.
1BB-	-ſzedł	-szedł	1d	-ſz(edł)	-szedł	1f	-ſzedł	-szedł	1b-	-ſzedł	-szedł
=7-	=7-	=7-	=7-	=7-	=7-	=7-	=7-	=7-	=7-	=7-	=7-
2F\	w nis-	w_ni-	2c\	w nis-	w_ni-	2f\	w nis-	w_ni-	2a\	w nis-	w_ni-
2BB-/	-kość	-skość	2d\	-kość	-skość	2f\	-k(ość)	-skość	2b-\	-kość	-skość
2E-X\	S(wia-	świa-	2B-\	świa-	świa-	2e-X\	S(wia-	świa-	2g/	S(wia-	świa-
2C/	-ta)	-ta	2c\	-ta	-ta	2e-\	-ta)	-ta	1g\	-ta)	-ta
=8-	=8-	=8-	=8-	=8-	=8-	=8-	=8-	=8-	=8-	=8-	=8-
1D	te-	te-	1A	te-	te-	1d	te-	te-	.	.	.
!	!	!	!	!	!	!	!	!	!LO:SIC:s=2f#i	!	!
.	.	.	.	.	.	.	.	.	2f/	te-	te-
!LO:SIC:v:t=custos F	!	!	!LO:SIC:v:t=custos c	!	!	!LO:SIC:v:t=custos f	!	!	!LO:SIC:v:t=custos a	!	!
1G	-g(o)	-go	1G	-(go)	-go	1d	-go/	-go	1g	-g(o)	-go
!!LO:LB:g=original
=9-	=9-	=9-	=9-	=9-	=9-	=9-	=9-	=9-	=9-	=9-	=9-
*xywh-#6:2874,2660,2121,816	*	*	*xywh-#6:603,2459,2115,965	*	*	*xywh-#5:2832,2481,2087,856	*	*	*xywh-#5:613,2788,2138,712	*	*
2F\	We-	we-	2c\	We-	we-	2f\	We-	we-	2a\	We-	we-
2A\	-dług	-dług	2c\	-dług	-dług	2eny\	-dług	-dług	2cc\	-dług	-dług
2G\	piſ-	Pi-	2d\	piſ-	Pi-	2g\	piſ-	Pi-	2b-\	piſ-	Pi-
2D/	-ma	-sma	2d\	-ma	-sma	2f\	-ma	-sma	2a\	-ma	-sma
=10-	=10-	=10-	=10-	=10-	=10-	=10-	=10-	=10-	=10-	=10-	=10-
2F\	Pro-	Pro-	2c\	Pro-	Pro-	2f\	Pro-	Pro-	2a\	Por-	Pro-
2G\	-ro-	-ro-	2B-\	-roc-	-ro-	2d\	-roc-	-ro-	1g	-roc-	-ro-
1D	-ckie-	-ckie-	1A	-kie-	-ckie-	1d	-kie-	-ckie-	.	.	.
!	!	!	!	!	!	!	!	!	!LO:SIC:s=2f#i	!	!
.	.	.	.	.	.	.	.	.	2f/	-kie-	-ckie-
=11-	=11-	=11-	=11-	=11-	=11-	=11-	=11-	=11-	=11-	=11-	=11-
!LO:TX:b:B:t=C S:mod=	!	!	!LO:TX:b:B:t=C S.:mod=	!	!	!LO:TX:b:B:t=C S.:mod=	!	!	!LO:TX:b:B:t=C S.:mod=	!	!
!LO:SIC:s=0GG;	!	!	!LO:SIC:s=0G;	!	!	!LO:SIC:s=0d;	!	!	!LO:SIC:s=0g;	!	!
0GGl	-go.	-go.	0Gl	-go.	-go.	0dl	-go.	-go.	0gl	-go.	-go.
==	==	==	==	==	==	==	==	==	==	==	==
*-	*-	*-	*-	*-	*-	*-	*-	*-	*-	*-	*-
!!!system-decoration: [(*)]
!!LO:MO:ori
!!!RDF**kern: l = terminal long
!!LO:MO:mod
!! !!!RDF**kern: i = editorial accidental
!!LO:MO:end
!!!filter-modern: shed -e "s/TX(.*):t=P:/tx$1:t=P:/LG" | shed -e "s/^custos:/Xcustos:/I" | sic -sq | modori -m | autostem -r | tie -s | humtr -p | shed -e "s/-//B"
!!!ENC: Mateusz Solarz
!!!END: 2022-04-26
!!!ENC: Wojciech Jakubiak-Danek
!!!END: 2022-05-09
!!!ENC-modern: Andrzej Kubiczek
!!!END-modern: 2022-07-24
!!!IIIF: https://polona.pl/iiif/item/NTg4NDI3Mw/manifest.json
!!!ENC-iiif: Emilia Ziętek
!!!END-iiif: 2022-09-03
!!!YEC: Copyright 2022 Narodowy Instytut Fryderyka Chopina (https://polishscores.org)
!!!YEM: License CC-BY-4.0 (https://creativecommons.org/licenses/by/4.0)
